!!!COM: Bach, Johann Sebastian
!!!OPR: Joh. Seb. Bachs vierstimmige Choralgesänge
!!!XEN: Four-part Chorales
!!!OTL: 3. Ach Gott und Herr, wie gross und schwer
!!!SCT: BWV 255
!!!SCA: Thematisch-systematisches Verzeichnis der musikalischen Werke Johann Sebastian Bach: Bach-Werke-Verzeichnis (Schmieder)
!!!YOR: Bach Gesellschaft Edition xxxix
!!!ENC: Steven Rasmussen
!!!CDT: 1685/3//-1750/7/28/
!!!OCY: Deutschland
!!!YEC: Copyright (c) 1994, 2000 Center for Computer Assisted Research in the Humanities
!!!YEM: Rights to all derivative editions reserved
!!!YEN: United States of America
**kern	**silbe	**kern	**kern	**kern
*I:[SOPRANO]	*I:[SOPRANO]	*I:[ALTO]	*I:[TENORE]	*I:[BASSO]
*clefG2	*	*clefG2	*clefGv2	*clefF4
*k[]	*	*k[]	*k[]	*k[]
*C:	*	*C:	*C:	*C:
*M4/4	*	*M4/4	*M4/4	*M4/4
4cc	Ach	4g	4e	4C
=1	=1	=1	=1	=1
4b	Gott	4g	4d	4G
4a	und	4f#	8dL	4D
.	.	.	8cJ	.
4g;	Herr,	4d;	4B;	4GG;
4g	wie	8eL	8cL	4C
.	.	8dJ	8B-J	.
=2	=2	=2	=2	=2
4a	gross	4c	8AL	8FL
.	.	.	8GJ	8EJ
4b	und	4d	4F	4D
4cc;	schwer	4e;	4G;	4C;
4dd	sind	4g	4B	4GG
=3	=3	=3	=3	=3
4cc	mein'	8gL	4c	4AA
.	.	8f#J	.	.
4b	be-	4g	4d	8BBL
.	.	.	.	8CJ
4a	-gang-	4f#	4d	4D
8bL	-ne	4g	4d	4G
8ccJ	.	.	.	.
=4	=4	=4	=4	=4
2a	SÃ¼n-	4g	4e	4C
.	.	4f#	8dL	4D
.	.	.	8cJ	.
4g;	-den!	4d;	4B;	4GG;
4cc	Da	4g	4c	4E
=5	=5	=5	=5	=5
4b	ist	4f	4d	4D
4cc	Nie-	4g	4e	4C
4dd;	-mand,	4g;	4B;	4G;
4dd	der	4g	4B	4G
=6	=6	=6	=6	=6
4ee	hel-	4g	4c	8cL
.	.	.	.	8BJ
8ddL	-fen	4f#	4c	4A
8ccJ	.	.	.	.
4dd;	kann,	4g;	4B;	4G;
4g	in	4g	4c	4E
=7	=7	=7	=7	=7
4a	die-	4d	4c	4F#
4b	-ser	4d	4B	4G#
8ccL	Welt	4.c	8eL	4A
8ddJ	.	.	8fJ	.
8eeL	zu	.	8gL	8GnL
8ffJ	.	8a	8cJ	8FnJ
=8	=8	=8	=8	=8
2dd	fin-	4.g	4c	4G
.	.	.	4B	4GG
.	.	8f	.	.
4cc;	-den.	4e;	4G;	4C;
==|!	==|!	==|!	==|!	==|!
*-	*-	*-	*-	*-
!!!RWG: Key is interpreted using the Humdrum key tool.
!!!END: 1994/05/03
!!!EMD: Converted from MuseData to Humdrum Dec 19, 2000, by Andreas Kornstaedt using muse2kern.
!!!EED: Craig Stuart Sapp
!!!EEV: 2024/03/31
!!!ONB: Some non-unicode characters
